!!!SOCIAL_FUNCTION:	songs with treatment of the sick
!!!PDT:	1932
!!!OTL: No_40_Song_When_Treating_the_Sick_(a).krn
!!!REG: Southwest
!!!LANG: Non-Tone
!!!LING_GROUP: Yuman-Cochimi
**kern
*staff1
=1-
*clefF4
*k[b-]
*M2/4
4C/
8C/L
8BB-/J
=2
8C/L
8C/J
4C/
=3
4C/
8D/L
8BB-/J
=4||
*M5/8
8C/L
8C/
8C/
8BB-/
8BB-/J
=5||
*M2/4
8C/L
8C/J
8BB-/L
8BB-/J
=6
4C/
8C/L
8C/J
=7
8C/L
8C/J
8BB-/L
8BB-/J
=8
4C/
8AA/
8r
=9
8C/L
8C/J
4C/
=10
4C/
8D/L
8C/J
=11||
*M5/8
8D\L
8D\
8D\
8D\
8G\J
=12||
*M2/4
8F\L
8F\J
4D\
=13
4C/
8AA/L
8C/J
=14
8C/L
8C/J
4C/
=15
4C/
8D/L
8BB-/J
=16
8C/L
8C/J
8r
8AA/
=17
8C/L
8C/J
4C/
=18||
*M6/8
8C/
8r
8C/
8D/L
8C/
8C/J
=19||
*M2/4
4D\
8D\L
8G\J
=20
4F\
4D\
=21
4C/
8AA/
8r
=22
4C/
8AA/
8r
=23
4C/
8AA/L
8AA/J
=24
4C/
8AA/L
8AA/J
=25
8C/L
8C/J
8C/L
8C/J
=26
8r
8C/
8C/L
8D/J
=27||
*M3/4
4C/
8AA/L
8C/J
8r
8C/
=28||
*M2/4
8C/L
8C/J
8C/L
8C/J
=29||
*M7/8
4C/
4C/
8D/L
8C/
8C/J
=30||
*M5/8
8D\L
8D\
8D\
8D\
8G\J
=31!|:
*M2/4
8F\L
8F\J
8D\L
8D\J
=32
4C/
8AA/L
8C/J
=33
8C/L
8C/J
4C/
=34||
*M5/8
4C/
8D/L
8BB-/J
8r
=35||
*M2/4
4C/
8AA/L
8C/J
=36
8C/L
8C/J
4r
=37
4C/
8AA/L
8AA/J
=38
8C/L
8C/J
4C/
=39||
*M6/8
8C/
8r
8C/
8D/L
8C/
8C/J
=40||
*M2/4
4D\
8D\L
8G\J
=41
4F\
4D\
=42
4C/
8AA/L
8C/J
=43
8C/L
8C/J
4C/
=44||
*M5/8
4C/
8D/L
8AA/
8AA/J
=45||
*M2/4
8C/L
8C/J
8AA/L
8C/J
=46
4r
4C/
=47||
*M5/8
4C/
8D/L
8C/
8C/J
=48||
*M2/4
4D\
8D\L
8G\J
=49
4F\
8D\L
8D\J
=50
4C/
4AA/
=51
4C/
8AA/L
8AA/J
=52
!!pagebreak:default
8C/L
8C/J
8AA/L
8C/J
=53
8r
8C/
8C/L
8D/J
=54
4C/
4C/
=55
4C/
8C/L
8C/J
=56
8r
8C/
8C/L
8D/J
=57
4AA/
8AA/L
8AA/J
=58
8r
8C/
8C/L
8D/J
=59
4C/
8C/L
8C/J
=60
8r
8C/
8C/L
8D/J
=61
4C/
8C/L
8D/J
=62
4C/
4C/
=63
4C/
8AA/L
8AA/J
=64||
*M3/4
8r
8C/
8C/L
8C/J
8C/L
8C/J
=65||
*M5/8
4C/
8D/L
8C/
8C/J
=66
8D\L
8D\
8D\
8D\
8G\J
=67:|!
*M3/4
2.C/
==
*-
